X:1
T:Aus tiefer Noth
T:Aus tiefer Noth
T:settings by Scheidt and Graupner
%%score [ ( 1 2 ) ( 3 4 ) ] { ( 5 6 ) | ( 7 8 ) }
L:1/8
Q:1/2=52
M:4/2
K:C
V:1 treble nm="S\nA"
V:2 treble 
V:3 bass nm="T\nB"
V:4 bass 
V:5 treble nm="Orgel"
V:6 treble 
V:7 bass 
V:8 bass 
V:1
 z16 | z16 | z16 | z16 | z16 | z16 | z16 | z16 | z16 | z16 | z16 | z16 | z16 | z16 | z16 | z16 | %16
 z16 | z8 |][K:F][M:4/2][Q:1/2=40] z16 | z16 | z16 | z16 | z16 | z16 | z16 | z16 | z16 | z16 | %28
 z16 | z16 | z16 |] %31
[K:G][M:4/4]"^Neues vermehrtes Darmstädtisches Choral-Buch p. 14 (Source: Universitätsbibliothek (University Library) Darmstadt)\nc.f. and figured bass given; realization of the inner voices by me; missing figures in brackets\nAus tieffer Noth schrey ich zu dir:\n"[Q:1/4=96] G4 | %32
 F4 G4 | A4 A4 | G4 A4 | !fermata!B4 c4 | B4 A4 | G4 E4 | F4 G4 | A8 | !fermata!G4 :| G4 | A4 c4 | %43
 B4 G4 | A4 F4 | !fermata!E4 F4 | D4 D4 | A4 B4 | c4 A4 | !fermata!G4 d4 | B4 c4 | A6 G2 | F4 G4 | %53
 A8 | !fermata!G8 |][K:C][M:4/4]"^\n""^Andere Melodie:" B4 | E4 B4 | c4 B4 | G4 A4 | %59
 !fermata!B4 B4 | c4 d4 | c4 A4 | G4 F4 | !fermata!E4 :| A4 | G4 c4 | B4 A2 d4 c2 B4 | %67
 !fermata!A4 c4 | B4 c4 | d4 G4 | B2 c2 A4 | !fermata!G4 G4 | c4 B4 | A4 E4 | G4 F4 | %75
 !fermata!E8 |] %76
V:2
 x16 | x16 | x16 | x16 | x16 | x16 | x16 | x16 | x16 | x16 | x16 | x16 | x16 | x16 | x16 | x16 | %16
 x16 | x8 |][K:F][M:4/2] x16 | x16 | x16 | x16 | x16 | x16 | x16 | x16 | x16 | x16 | x16 | x16 | %30
 x16 |][K:G][M:4/4] D4 | D4 B,4 | E4 F4 | E4 F4 | G4 E4 | D4 F4 | E4 E4 | C4 B,4 | D8 | B,4 :| E4 | %42
 F4 A4 | F4 E4 | E4 D4 | ^C4 D4 | D4 B,4 | E4 G4 | G4 F4 | D4 D4 | G4 G4 | F4 E4 | D4 B,4 | D8 | %54
 B,8 |][K:C][M:4/4] B,4 | B,4 E4 | E4 G4 | E4 E4 | ^G4 G4 | A4 A4 | G4 F4 | E4 D4 | B,4 :| F4 | %65
 C4 E4 | D2 E2 F2 F4 E2 E4 | C4 F4 | G4 G4 | ^F4 E4 | D2 E2 D4 | B,4 E4 | E4 E4 | C4 C4 | E4 D4 | %75
 B,8 |] %76
V:3
 z16 | z16 | z16 | z16 | z16 | z16 | z16 | z16 | z16 | z16 | z16 | z16 | z16 | z16 | z16 | z16 | %16
 z16 | z8 |][K:F][M:4/2] z16 | z16 | z16 | z16 | z16 | z16 | z16 | z16 | z16 | z16 | z16 | z16 | %30
 z16 |][K:G][M:4/4] B,4 | A,4 G,4 | C4 A,4 | E4 A,4 | G,4 G,4 | G,4 D4 | B,4 C4 | C4 G,4- | %39
 G,4 F,4 | G,4 :| B,4 | D4 E4 | ^D4 E4 | A,4 A,4 | A,4 A,4 | B,4 B,4 | C4 D4 | E4 D4 | B,4 A,4 | %50
 D4 E4 | D4 A,4 | A,4 G,4- | G,4 F,4 | G,8 |][K:C][M:4/4] ^G,4 | ^G,8 | A,4 G,4 | G,4 C4 | %59
 B,4 B,4 | A,4 F,4 | G,4 C4 | C4 A,4 | ^G,4 :| A,4 | C4 G,4 | B,4 C2 D4 A,2- A,2 ^G,2 | A,4 A,4 | %68
 D4 C4 | A,4 G,4 | G,2 G,2 ^F,4 | G,4 G,4 | A,4 G,4 | C4 C4 | C4 A,4 | ^G,8 |] %76
V:4
 x16 | x16 | x16 | x16 | x16 | x16 | x16 | x16 | x16 | x16 | x16 | x16 | x16 | x16 | x16 | x16 | %16
 x16 | x8 |][K:F][M:4/2] x16 | x16 | x16 | x16 | x16 | x16 | x16 | x16 | x16 | x16 | x16 | x16 | %30
 x16 |][K:G][M:4/4] G,,4 | D,4 E,4 | C,4 D,4 | E,4 D,4 | !fermata!G,,4 C,4 | G,4 D,4 | E,4 C,4 | %38
 A,,4 G,,4 | D,8 | !fermata!G,,4 :| E,4 | D,4 A,,4 | B,,4 E,4 | ^C,4 D,4 | !fermata!A,,4 D,4 | %46
 B,,4 B,,4 | A,,4 G,,4 | C,4 D,4 | !fermata!G,,4 F,4 | G,4 C,4 | D,4 ^C,4 | D,4 E,4 | D,8 | %54
 !fermata!G,,8 |][K:C][M:4/4] E,4 | E,8 | A,,4 B,,4 | C,4 A,,4 | !fermata!E,4 E,4 | A,4 D,4 | %61
 E,4 F,4 | C,4 D,4 | !fermata!E,4 :| F,4 | E,4 C,4 | G,4 F,2 D,4 A,2 E,4 | !fermata!A,,4 A,4 | %68
 G,4 E,4 | D,4 E,4 | G,2 C,2 D,4 | !fermata!G,,4 C,4 | A,,4 E,4 | F,4 C,4 | C,4 D,4 | %75
 !fermata!E,8 |] %76
V:5
"^Görlitzer Tabulaturbuch No. 63\n" B8 E4 B4 | c4 B4 G4 A4 | B8 z4 B4 | c4 d4 c4 A4 | G4 F4 E8 | %5
 z4 B4 E4 B4 | c4 B4 G4 A4 | B8 z4 B4 | c4 d4 c4 A4 | G4 F4 E8 | z4 A4 G4 c4 | B4 A2 d4 c2 B4 | %12
 A8 z4 c4 | B4 c4 d4 G4 | B2 c2 A4 G8 | z4 G4 c4 B4 | A4 E4 G4 F4 | !fermata!E8 |] %18
[K:F][M:4/2]"^Görlitzer Tabulaturbuch No. 64\n" F4 E2 F2 G4 G4 | F2 G2 A4 z4 B4 | %20
 A2 G2 F4 E2 F2 G4 | !breath!F8 F4 E2 F2 | G4 G4 F2 G2 A4 | z4 B4 A2 G2 F4 | E2 F2 G4 F8 | %25
 z4 F4 G2 B2 A4 | F4 G2 E2 D8 | z4 E4 C2 C2 G4 | A4 B2 G2 F8 | z4 c4 A2 B2 G3 F | %30
 E2 F2 G4 !fermata!F8 |][K:G][M:4/4] z4 | z8 | z8 | z8 | z8 | z8 | z8 | z8 | z8 | z4 :| z4 | z8 | %43
 z8 | z8 | z8 | z8 | z8 | z8 | z8 | z8 | z8 | z8 | z8 | z8 |][K:C][M:4/4] z4 | z8 | z8 | z8 | z8 | %60
 z8 | z8 | z8 | z4 :| z4 | z8 | z16 | z8 | z8 | z8 | z8 | z8 | z8 | z8 | z8 | z8 |] %76
V:6
 E8 B,4 B,4 | E2 ^F2 G2 =F2 E6 ^F2 | ^D2 E2 D4 z4 E2 ^F2 | G4 F6 E4 F2 | E2 ^C2 z2 D4 CB, C4 | %5
 z4 ^D4 z4 =D2 B,2 | z2 G2 ^F2 =F2 D2 E4 E2 | ^D2 E2 D4 z4 E4 | E4 A,2 B,2 C2 F2 E4 | %9
 D4 ^C2 D=C B,8 | z4 C4 D4 E4 | E6 D2 B,2 E2- E3 D | ^C8 z4 E4- | E4 E4 D4 E2 C2 | %14
 D2 E2 z2 DC B,8 | z4 B,4 E8 | ^C2 D4 C2 D2 E4 D2- | D2 C2 !fermata!B,4 |] %18
[K:F][M:4/2] A,4 G,2 A,2 G,8 | z CB,G, C4 z4 D4 | C4- CD C2 G,2 C2 D2 CB, | A,8 C4 z2 D2 | %22
 C4 G,4 C4 C4 | z4 B,4 C4 D2 B,2- | B,2 A,2 G,2 B,2 A,8 | z4 D6 G2 E4 | D4 D2 ^C2 D8 | %27
 z4 C4 C2 A,2 G,4 | C4 D2 CB, A,2 B,2 C4 | z4 F4 C2 D2 B,2 C2- | C2 C2 B,4 A,8 |][K:G][M:4/4] x4 | %32
 x8 | x8 | x8 | x8 | x8 | x8 | x8 | x8 | x4 :| x4 | x8 | x8 | x8 | x8 | x8 | x8 | x8 | x8 | x8 | %51
 x8 | x8 | x8 | x8 |][K:C][M:4/4] x4 | x8 | x8 | x8 | x8 | x8 | x8 | x8 | x4 :| x4 | x8 | x16 | %67
 x8 | x8 | x8 | x8 | x8 | x8 | x8 | x8 | x8 |] %76
V:7
 ^G,12 E,4- | E,2 C2 D4 C2 B,2 A,4- | A,2 G,2 ^F,4 z4 ^G,4 | z2 G,2 A,2 B,2 C4 z2 D2 | %4
 B,2 G,2 A,4 A,8 | z4 ^F,2 G,2 A,4 F,4 | G,4 D3 C B,4 A,4- | A,2 G,2 ^F,4 z4 ^G,4- | %8
 G,2 =G,2 ^F,2 =F,2 E,2 z2 E,4 | G,2 D,2 A,4 ^G,8 | z4 E,4 D,4 A,2 C2 | E4 A,4 ^G,2 A,4 G,2 | %12
 A,8 z4 A,4 | ^G,4 A,4 ^F,2 =G,4 E,2 | G,2 G,4 ^F,2 G,8 | z4 G,4 ^G,2 A,4 =G,2- | %16
 G,2 F,G, A,2 E,2 D,2 A,4 B,2 | ^G,2 A,2 !fermata!G,4 |][K:F][M:4/2] C,4 C,4 E,4 D,2 E,2 | %19
 C,2 D,E, F,4 z4 F,4 | E, F,2 E, F,4 z2 F,4 E,2 | F,8 A,4 A,2 A,2 | G,2 A,B, C2 B,2 A, F,2 E, F,4 | %23
 z4 D,4 F,2 E,2 D,4 | G,2 F,4 E,2 F,8 | z4 D,6 D4 ^C2 | D2 D,2 B,2 A,G, ^F,8 | z4 A,4 G,2 C,4 C,2 | %28
 C,2 F,4 E,2 F,2 G,2 A,4 | z4 A,4 A,2 F,2 G,2 =E,F, | G,2 F,4 E,2 F,8 |][K:G][M:4/4] z4 | z8 | z8 | %34
 z8 | z8 | z8 | z8 | z8 | z8 | z4 :| z4 | z8 | z8 | z8 | z8 | z8 | z8 | z8 | z8 | z8 | z8 | z8 | %53
 z8 | z8 |][K:C][M:4/4] z4 | z8 | z8 | z8 | z8 | z8 | z8 | z8 | z4 :| z4 | z8 | z16 | z8 | z8 | %69
 z8 | z8 | z8 | z8 | z8 | z8 | z8 |] %76
V:8
 E,12 ^G,,4 | A,,4 B,,4 C,6 D,2 | B,,8 z4 E,4- | E,4 F,2 G,2 A,4 ^C,2 D,2 | E,4 D,4 A,,8 | %5
 z4 B,,4 C,2 ^C,2 D,2 ^D,2 | E,4 D,4 z2 E,2 ^C,2 =C,2 | B,,8 z4 E,4 | E,4 D,4 A,,2 A,2 ^C,2 =C,2 | %9
 B,,2 _B,,2 A,,2 D,2 E,8 | z4 C,4 B,,2 _B,,2 A,,2 A,2 | ^G,2 =G,2 ^F,2 =F,2 E,8 | A,,8 z4 A,,4 | %13
 E,2 D,2 C,2 A,,2 B,,4 C,4 | G,,2 C,2 D,4 G,,8 | z4 E,4- E,8 | A,,8 B,,2 ^C,2 D,4 | !fermata!E,8 |] %18
[K:F][M:4/2] F,,G,,A,,B,, C,2 F,,2 C,2 C,2 =B,,2 C,2 | A,,2 G,,2 F,,4 z4 B,,4 | %20
 C,4 A,, B,,2 A,, C,B,,A,,F,, B,,G,, C,2 | F,,8 F,4 ^C,2 D,2 | E,4 E,4 F,2 C,2 F,,4 | %23
 z4 G,,4 A,,4 B,,4 | C,8 F,,8 | z4 B,,6 G,,2 A,,4 | B,,3 A,, G,,2 A,,2 D,8 | %27
 z4 A,,4 E,,2 F,,4 E,,2 | F,,4 B,,2 C,2 F,8 | z4 F,4 F,2 D,2 _E,2 C,2- | %30
 C,2 A,,2 G,,2 C,2 !fermata!F,,8 |][K:G][M:4/4] x4 | x8 | x8 | x8 | x8 | x8 | x8 | x8 | x8 | x4 :| %41
 x4 | x8 | x8 | x8 | x8 | x8 | x8 | x8 | x8 | x8 | x8 | x8 | x8 | x8 |][K:C][M:4/4] x4 | x8 | x8 | %58
 x8 | x8 | x8 | x8 | x8 | x4 :| x4 | x8 | x16 | x8 | x8 | x8 | x8 | x8 | x8 | x8 | x8 | x8 |] %76

